!!!OTL: Vom geistlichen Jaeger
!!!ARE: Europa, Mitteleuropa, Deutschland
!!!SCT: A0598
!!!YEM: Copyright 1995, estate of Helmut Schaffrath.
**kern
*ICvox
*Ivox
!! Mixed meters:  4/2; 6/2
*M4/2
*k[b-]
*F:
{2f
=1
2f
2g
2a
2b-
=2
*M6/2
1cc
1cc
2r}
{2cc
=3
*M4/2
3b-
3a
3b-
3cc
1.5b-
=4
1a
2r}
{2a
=5
2a
2cc
2b-
2a
=6
2g
2f
1e}
=7
{2.f
4f
=8
2a
2b-
2a
2g
=9
1.f}
==
!!!AGN: Romanze, Ballade, Lied, religioeses Lied
!! Speiersches Gsgb 1617 fol. 1
!!!ONB: ESAC (Essen Associative Code) Database: ALTDEU
!!!AMT: irregular
!!!AIN: vox
!!!EED: Helmut Schaffrath
!!!EEV: 1.0
*-
